X:46
T:Patricks Hill. LIT.046
M:2/4
Q:1/4=150
L:1/8
B:Wm. Litten MS, 1802
Z:Village Music Project 2017 Anne Wride
K:A
a2 ec | df f2 | e2 cA | GBB2 |
a2ec | df f2 | ec dB | A2A2 :|
|: cA Ac | dB Bd | cA Ac | ef ga |
cA Ac | dB Bd | cA BG | A2A2 :|

